src/assets/icons/plane.svg

<svg height="40" viewBox="0 0 40 40" width="40" xmlns="http://www.w3.org/2000/svg"><path d="m21.6372339 8.16538365v-.26873114h.1099354l.7759033-1.89665251.7759033 1.89665251h.1099355v.26873114l8.6372339 21.11323835-9.5230727-3.1743575-9.5230726 3.1743575zm1.7716775 4.67914375v11.6875046l5.5361864 1.8453954zm-1.7716775 11.6875046v-11.6875046l-5.5361864 13.5329z" transform="matrix(.64278761 .76604444 -.76604444 .64278761 21.558017 -10.952694)"/></svg>

<svg width="25px" height="23px" viewBox="0 0 25 23" version="1.1" xmlns="http://www.w3.org/2000/svg" xmlns:xlink="http://www.w3.org/1999/xlink">
    <defs>
        <path d="M21.6372339,8.16538365 L21.6372339,7.89665251 L21.7471693,7.89665251 L22.5230726,6 L23.2989759,7.89665251 L23.4089114,7.89665251 L23.4089114,8.16538365 L32.0461453,29.278622 L22.5230726,26.1042645 L13,29.278622 L21.6372339,8.16538365 Z M23.4089114,12.8445274 L23.4089114,24.532032 L28.9450978,26.3774274 L23.4089114,12.8445274 Z M21.6372339,24.532032 L21.6372339,12.8445274 L16.1010475,26.3774274 L21.6372339,24.532032 Z" id="path-1"></path>
    </defs>
    <g id="Symbols" stroke="none" stroke-width="1" fill="none" fill-rule="evenodd">
        <g id="Icon/Send" transform="translate(-7.000000, -10.000000)">
            <mask id="mask-2" fill="white">
                <use xlink:href="#path-1"></use>
            </mask>
            <use id="Combined-Shape" fill="#979797" fill-rule="nonzero" transform="translate(22.523073, 17.639311) rotate(50.000000) translate(-22.523073, -17.639311) " xlink:href="#path-1"></use>
        </g>
    </g>
</svg>
